X:301
T: Geming daolu yaorenqing
N: C1798
O: China, Jiangxi Ruijin
S: IV, 217]
R: Xiaodiao]
M: 2/4
L: 1/16
K: D
B2BAB2d2 | e4f4 | e2A2B2ed | B8
d2deF2A2 | B4e2B2 | A8
B2BAB2d2 | e4f4 | e2A2B2ed | B8
d2deF2A2 | B4e2B2 | A8
e4f4 | A4B4 | d2de2FA2 | B4e2B2 | A8

